X:1
T:James Gibb editions
T:Una hora - Victoria
T:#
%%score [ 1 2 3 4 ]
L:1/8
Q:1/4=100
M:2/2
K:Bb
V:1 treble nm="Alto I" snm="A I"
V:2 treble nm="Alto II" snm="A II"
V:3 treble-8 nm="Tenor" snm="T"
V:4 bass nm="Bass" snm="B"
V:1
"^Una hora""^Tomas Luis deVictoria\n(1548-1611)" G8 | C4 F4 | E2 G2 G2 A2 | (BAGF E4) | D2 D4 C2 | %5
w: U-|na ho-|ra non po- tu-|i\- * * * *|stis vi- gi-|
 D4 G,2 (G2- | G2 ^F2 G3 A | B2 A3 G G2- |[M:2/2] G2 ^F=E F4) | G4 z2 G2- | G2 G2 G3 G | %11
w: la- re me\-||||cum, qui|* ex hor- ta-|
 G2 F2 D2 (G2- | F3 E F4) | G4 _A4 | G8 || C4 E3 E | E2 D2 (E2 F2) | D2 G2 c3 c | c2 =B2 c4 | %19
w: ba- mi- ni mo\-||ri pro|me?|Vel Ju- dam|non vi- de\- *|tis, Vel Ju- dam|non vi- de-|
 G4 z4 | z8 | z2 G4 G2 | F2 D2 (C4- | C2 =B,2) B,4 | z2 C3 C F2 | D2 G3 G G2 | (E3 D/C/ B,2) B,2 | %27
w: tis,||quo- mo-|do non dor\-|* * mit,|sed fe- sti-|nat tra- de- re|me * * * Ju-|
 (C4 D4) | =E8 || z4 G4- | G2 E2 F4 | G2 B4 G2 | _A4 G2 D2- | DD =E2 F3 F | G4 _A4 | G2 (G4 F2) | %36
w: dae\- *|is?|Quid|* dor- mi-|tis, quid dor-|mi- tis? sur\-|* gi- te, sur- gi-|te et|o- ra\- *|
 G4 z2 G2- | G2 G2 G4 | C2 F4[Q:1/4=99] E2 |[Q:1/4=97] D2[Q:1/4=95] C2[Q:1/4=93] (F3[Q:1/4=91] E | %40
w: te, ne|* in- tre-|tis in ten-|ta- ti- o\- *|
[Q:1/4=90] D2[Q:1/4=88] C2[Q:1/4=86] D4) |[Q:1/4=85] =E8 |] %42
w: |nem.|
V:2
 z8 | z8 | z8 | z2 G2 G2 A2 | (BAGF E4) | D2 D4 C2 | D4 G,2 (G2- | G2 ^F2 G3 A | %8
w: |||non po- tu-|i\- * * * *|stis vi- gi-|la- re me\-||
[M:2/2] B2 AG A2 D2) | D4 z2 E2- | E2 E2 E3 E | E2 C2 =B,4 | C8 | D4 F4 | D8 || z8 | z4 z2 C2 | %17
w: |cum, qui|* ex hor- ta-|ba- mi- ni|mo-|ri pro|me?||Vel|
 G3 G G2 F2 | G4 G4 | z2 D2 E3 E | E2 E2 _A4 | G2 B3 B B2 | _A2 (G4 F2) | G2 D3 D G2 | =E4 F2 FF | %25
w: Ju- dam non vi-|de- tis,|Vel Ju- dam|non vi- de-|tis, quo- mo- do|non dor\- *|mit, sed fe- sti-|nat tra- de- re|
 B,2 B3 B B2 | G2 G2 (BAGF | E2 F2 G4) | G8 || C6 =B,2 | C4 D4 | z2 D4 E2 | C4 =B,4 | %33
w: me tra- de- re|me Ju- dae\- * * *||is?|Quid dor-|mi- tis,|quid dor-|mi- tis?|
 =B,3 B, C2 D2- | DD =E2 F2 C2 | (E3 D C4) | D2 E4 E2 | E4 D2 E2- | E2 D2 C2 B,2 | (F3 E D2 C2 | %40
w: sur- gi- te, sur-|* gi- te et o-|ra\- * *|te, ne in-|tre- tis in|* ten- ta- ti-|o\- * * *|
 =B,2 C4 B,2) | C8 |] %42
w: |nem.|
V:3
 z8 | z8 | c8 | G4 c4 | B8 | z2 G2 G2 A2 | B2 A2 (B3 c | d2) d2 B2 c2 | %8
w: ||U-|na ho-|ra|non po- tu-|i- stis vi\- *|* gi- la- re|
[M:2/2][K:treble-8] (d3 c/B/ A4) | =B4 z2 c2- | c2 c2 B3 B | B2 _A2 G4 | z4 z2 c2- | %13
w: me\- * * *|cum, qui|* ex hor- ta-|ba- mi- ni|mo\-|
 c2 =B2 c2 (c2- | c2 =BA B4) || z4 z2 G2 | B3 B B2 A2 | (B3 d c4) | d2 d2 e3 e | e2 d2 (c3 B | %20
w: * ri pro me?||Vel|Ju- dam non vi-|de\- * *|tis, Vel Ju- dam|non vi- de\- *|
 cd e4 d2) | e4 e3 e | c2 B2 c4 | d4 z2 G2- | GG c2 A2 d2- | dd d2 B2 G2 | (B2 c2 d2 e2- | %27
w: |tis, quo- mo-|do non dor-|mit, sed|* fe- sti- nat tra\-|* de- re me Ju-|dae\- * * *|
 ed c4 =B2) | c8 || z8 | z8 | z8 | z8 | z8 | z8 | z8 | z8 | z8 | z8 | z8 | z8 | z8 |] %42
w: |is?||||||||||||||
V:4
 z8 | z8 | z8 | z8 | z2 G,2 G,2 A,2 | (B,A,G,F, E,4) | D,4 z2 G,2 | D,4 E,2 E,2 |[M:2/2] D,8 | %9
w: ||||non po- tu-|i\- * * * *|stis vi-|gi- la- re|me-|
 G,4 z2 C,2- | C,2 C,2 E,3 E, | E,2 F,2 G,4 | _A,8 | G,4 F,4 | G,8 || z4 z2 C,2 | G,3 G, G,2 F,2 | %17
w: cum, qui|* ex hor- ta-|ba- mi- ni|mo-|ri pro|me?|Vel|Ju- dam non vi-|
 (G,4 _A,4) | G,2 G,2 C3 C | C2 =B,2 (C_B,_A,G, | _A,3 G, F,4) | E,4 E,3 E, | F,2 G,2 _A,4 | %23
w: de\- *|tis, Vel Ju- dam|non vi- de\- * * *||tis, quo- mo-|do non dor-|
 G,4 z4 | C,3 C, F,2 D,2 | G,3 G, G,2 E,2- | E,2 C,2 (G,4 | _A,4 G,4) | C,8 || z8 | z8 | G,6 E,2 | %32
w: mit,|sed fe- sti- nat|tra- de- re me|* Ju- dae\-||is?|||quid dor-|
 F,4 G,4 | G,3 G, A,2 B,2- | B,B, C2 F,2 F,2 | (C3 B, _A,4) | G,2 C4 C2 | C4 G,2 C2- | %38
w: mi- tis?|sur- gi- te, sur\-|* gi- te et o-|ra\- * *|te, ne in-|tre- tis in|
 C2 B,2 _A,2 G,2 | (F,8 | G,8) | C,8 |] %42
w: * ten- ta- ti-|o\-||nem.|

